!!!COM:	la Rue, Pierre de
!!!CDT:	~1452///-1518/11/20
!!!OTL:	Delicta iuventutis
!!!AGN:	Motet
!!!SCT:	Rue2004
!!!SCA:	Rue2004
!!!voices:	4
**kern	**kern	**kern	**kern
*staff4	*staff3	*staff2	*staff1
*Ivox	*Ivox	*Ivox	*Ivox
*I"Bassus	*I"Tenor	*I"Contra	*I"Discantus
*I'B	*I'T	*I'C	*I'D
*>[A,B]	*>[A,B]	*>[A,B]	*>[A,B]
*>A	*>A	*>A	*>A
*clefF4	*clefGv2	*clefGv2	*clefG2
*k[]	*k[]	*k[]	*k[]
*M2/1	*M2/1	*M2/1	*M2/1
*met(C|)	*met(C|)	*met(C2)	*met(C2)
!!primary-mensuration: met(C2)
!!section: Delicta juventutis
!!!OMD: Delicta juventutis
=1-	=1-	=1-	=1-
0r	0r	1e	0r
.	.	[1e	.
=2	=2	=2.	=2.
0r	0r	2e\]	1e
.	.	4d\	.
.	.	4c\	.
.	.	2c\	[1e
.	.	4B\	.
.	.	4A/	.
=3	=3	=3	=3
0r	0r	1A	2e/]
.	.	.	4d/
.	.	.	4c/
.	.	[1e	2c/
.	.	.	4B/
.	.	.	4A/
=4	=4	=4.	=4.
0r	0r	1e]	1A
.	.	[1f	[1a
=5	=5	=5	=5
0r	0r	2f\]	1a]
.	.	2e\	.
.	.	2d\	[1dd
.	.	2c\	.
=6	=6	=6.	=6.
0r	0r	2B\	2dd\]
.	.	2A/	2cc\
.	.	[1G	2b\
.	.	.	2a/
=7	=7	=7	=7
0r	0r	1G]	2g/
.	.	.	2f/
.	.	1c	[1e
=8	=8	=8.	=8.
0r	0r	2c\	1e]
.	.	1c	.
.	.	.	1a
.	.	4B\	.
.	.	4A/	.
=9	=9	=9	=9
0r	0r	2c\	1a
.	.	2F/	.
.	.	1f	1a
=10	=10	=10.	=10.
0r	0r	[0e	1.g
.	.	.	4f/
.	.	.	4e/
=11	=11	=11	=11
0r	0r	1e]	2g/
.	.	.	2c/
.	.	[1e	1g
=12	=12	=12.	=12.
0r	0r	2e\]	2g/
.	.	4d\	1f
.	.	4c\	.
.	.	1d	.
.	.	.	4e/
.	.	.	4d/
=13	=13	=13	=13
1r	1.A	0e	0c
[1AA	.	.	.
.	2A/	.	.
=14	=14	=14.	=14.
2AA/]	1A	0r	0r
2AA/	.	.	.
1AA	1c	.	.
=15	=15	=15	=15
0E	2B\	0r	0r
.	2.c\	.	.
.	4B\	.	.
.	4B\	.	.
.	4A/	.	.
=16	=16	=16.	=16.
1E	1G	0r	0r
1F	1A	.	.
=17	=17	=17	=17
2E\	2G/	0r	0r
2.F\	2A/	.	.
.	2B\	.	.
4E\	.	.	.
4E\	2c\	.	.
4D\	.	.	.
=18	=18	=18.	=18.
1C	2A/	0r	0r
.	2G/	.	.
1D	2r	.	.
.	2B\	.	.
=19	=19	=19	=19
2C/	2A/	0r	0r
2D\	1d	.	.
2E\	.	.	.
2F\	[2c\	.	.
=20	=20	=20.	=20.
1D	4c\]	0r	0r
.	4B\	.	.
.	2B\	.	.
1C	[1c	.	.
=21	=21	=21	=21
[0E	1c]	[0e	[0g
.	[1B	.	.
=22	=22	=22.	=22.
1E]	1B]	1e]	1g]
1AA	1A	1e	1a
=23	=23	=23	=23
[0AA	[0A	[0e	0a
=24	=24	=24.	=24.
0AA]	0A]	0e]	1r
.	.	.	1a
=25	=25	=25	=25
0r	0r	1r	1g
.	.	1e	1cc
=26	=26	=26.	=26.
0r	0r	1d	2b\
.	.	.	1a
.	.	1f	.
.	.	.	4g/
.	.	.	4f/
=27	=27	=27	=27
0r	0r	[0e	2g/
.	.	.	2c/
.	.	.	1c
=28	=28	=28.	=28.
0r	0r	0e]	1r
.	.	.	1g
=29	=29	=29	=29
0r	0r	1r	2f/
.	.	.	1g
.	.	1e	.
.	.	.	4f/
.	.	.	4e/
=30	=30	=30.	=30.
0r	0r	2d\	2f/
.	.	1e	2g/
.	.	.	2c/
.	.	4d\	[2cc\
.	.	4c\	.
=31	=31	=31	=31
0r	0r	2d\	4cc\]
.	.	.	4b\
.	.	2e\	2b\
.	.	2A/	2cc\
.	.	[2e\	4b\
.	.	.	4a/
=32	=32	=32.	=32.
0r	0r	4e\]	2g/
.	.	4d\	.
.	.	2d\	1b
.	.	2e\	.
.	.	2A/	[2a/
=33	=33	=33	=33
1r	1r	1B	4a/]
.	.	.	4g#i/
.	.	.	2g#i/
1AA	[1c	1A	1a
=34	=34	=34.	=34.
0E	1c]	0r	0r
.	1B	.	.
=35	=35	=35	=35
1E	1G	0r	0r
1F	1A	.	.
=36	=36	=36.	=36.
2E\	2r	0r	0r
2C/	2E/	.	.
1D	1F	.	.
=37	=37	=37	=37
1C	2.E/	0r	0r
.	4F/	.	.
2.E\	2G/	.	.
.	[2C/	.	.
4F\	.	.	.
=38	=38	=38.	=38.
2G\	2C/]	0r	0r
1C	2G/	.	.
.	2A/	.	.
2E\	[2c\	.	.
=39	=39	=39	=39
1D	4c\]	0r	0r
.	4B\	.	.
.	2B\	.	.
2r	2c\	.	.
2C/	4B\	.	.
.	4A/	.	.
=40	=40	=40.	=40.
2BB/	1G	0r	0r
2GG/	.	.	.
1AA	1c	.	.
=41	=41	=41	=41
1GG	2B\	0r	0r
.	1G	.	.
2r	.	.	.
[2G\	4F/	.	.
.	4E/	.	.
=42	=42	=42.	=42.
4G\]	1G	0r	0r
4F\	.	.	.
1E	.	.	.
.	1F	.	.
2D\	.	.	.
=43	=43	=43	=43
1E	[0E	0e	1r
1AA	.	.	1cc
=44	=44	=44.	=44.
0r	0E]	1e	2b\
.	.	.	1g
.	.	1e	.
.	.	.	2b\
=45	=45	=45	=45
0r	0r	1f	1a
.	.	1e	1g
=46	=46	=46.	=46.
0r	0r	1f	2r
.	.	.	2a/
.	.	2e\	2b\
.	.	[2c\	2cc\
=47	=47	=47	=47
0r	0r	2c\]	2a/
.	.	2e\	2g/
.	.	1d	4b\
.	.	.	4a/
.	.	.	4g/
.	.	.	4f/
=48	=48	=48.	=48.
0C	1r	0c	[0e
.	1A	.	.
=49	=49	=49	=49
1C	2G/	0r	0e]
.	1E	.	.
1C	.	.	.
.	2G/	.	.
=50	=50	=50.	=50.
1D	1F	0r	0r
2C/	2.E/	.	.
[2AA/	.	.	.
.	8F/L	.	.
.	8E/J	.	.
=51	=51	=51	=51
2AA/]	4F/	0r	0r
.	4E/	.	.
2C/	1A	.	.
1BB	.	.	.
.	2G#i/	.	.
=52	=52	=52.	=52.
0AA	0A	0r	0r
=53	=53	=53	=53
0AA	1r	0e	1r
.	1A	.	1e
=54	=54	=54.	=54.
1E	1B	1e	1g
1E	1B	1e	1g
=55	=55	=55	=55
2.F\	1A	1c	1a
4E\	.	.	.
2D\	[1A	1d	[1a
4C/	.	.	.
4BB/	.	.	.
=56	=56	=56.	=56.
0AA	1A]	[0e	1a]
.	[1A	.	[1cc
=57	=57	=57	=57
1r	2A/]	0e]	2cc\]
.	4G/	.	4b\
.	4F/	.	4a/
[1E	2G/	.	2b\
.	2E/	.	2g/
=58	=58	=58.	=58.
2E\]	1E	2r	1g
4D\	.	2e\	.
4C/	.	.	.
2D\	1r	1f	1r
2BB/	.	.	.
=59	=59	=59	=59
0C	1c	1e	2r
.	.	.	2g/
.	1c	2r	2g/
.	.	2e\	2g/
=60	=60	=60.	=60.
2r	1c	1e	2.a/
2C/	.	.	.
.	.	.	4g/
2C/	1c	1e	2e/
2C/	.	.	2g/
=61	=61	=61	=61
2F\	1c	1f	2a/
2A\	.	.	1cc
1G	1d	[1g	.
.	.	.	2b\
=62	=62	=62.	=62.
1.C	0c	2g\]	2.cc\
.	.	2e\	.
.	.	.	4b\
.	.	1e	2g/
4BB/	.	.	2a/
4AA/	.	.	.
=63	=63	=63	=63
[0GG	0r	2r	[0b
.	.	2d\	.
.	.	2e\	.
.	.	[2d\	.
=64	=64	=64.	=64.
0GG]	0r	2d\]	0b]
.	.	2.g\	.
.	.	4f\	.
.	.	4e\	.
.	.	4d\	.
=65	=65	=65	=65
0r	0r	1c	2r
.	.	.	2a/
.	.	2d\	2b\
.	.	[2e\	[2cc\
=66	=66	=66.	=66.
0r	0r	4e\]	4cc\]
.	.	4d\	4b\
.	.	4c\	4a/
.	.	4B\	4g/
.	.	2d\	2f/
.	.	4c\	[2g/
.	.	4B\	.
=67	=67	=67	=67
2r	1r	1A	4g/]
.	.	.	4f#i/
2D\	.	.	2f#i/
1E	2r	1G	1g
.	2G/	.	.
=68	=68	=68.	=68.
1C	1A	0r	2r
.	.	.	2e/
1D	1B	.	2f/
.	.	.	2d/
=69	=69	=69	=69
0AA	1.c	0r	1e
.	.	.	1A
.	4B\	.	.
.	4A/	.	.
=70	=70	=70.	=70.
2r	2B\	0r	0r
2E\	2G/	.	.
2F\	1A	.	.
2D\	.	.	.
=71	=71	=71	=71
1E	2G/	0r	0r
.	2B\	.	.
2AA/	2c\	.	.
[2C/	[2A/	.	.
=72	=72	=72.	=72.
4C/]	2A/]	2r	2r
4D\	.	.	.
2BB/	1G	2d\	2b\
1AA	.	2e\	2cc\
.	2F#i/	2c\	2a/
=73	=73	=73	=73
0GG	0G	2B\	2b\
.	.	2.d\	1g
.	.	4c\	.
.	.	[2c\	4f/
.	.	.	4e/
=74	=74	=74.	=74.
0r	0r	4c\]	1d
.	.	4B\	.
.	.	2B\	.
.	.	2c\	1e
.	.	2G/	.
=75	=75	=75	=75
1r	0r	2A/	2r
.	.	2B\	2d/
2r	.	2c\	2e/
2D\	.	4B\	2f/
.	.	4A/	.
=76	=76	=76.	=76.
2E\	0r	2G/	2g/
2F\	.	1c	4f/
.	.	.	4e/
1G	.	.	2.d/
.	.	2B\	.
.	.	.	4e/
=77	=77	=77	=77
2C/	2r	1c	1e
2E\	2G/	.	.
1D	2A/	1r	1r
.	2B\	.	.
=78	=78	=78.	=78.
1C	2c\	0r	0r
.	4B\	.	.
.	4A/	.	.
2r	2G/	.	.
2C/	2c\	.	.
=79	=79	=79	=79
2D\	2B\	0r	0r
2E\	2c\	.	.
2F\	2A/	.	.
2G\	2d\	.	.
=80	=80	=80.	=80.
2C/	2e\	0r	0r
2E\	4d\	.	.
.	4c\	.	.
1D	2.B\	.	.
.	4A/	.	.
=81	=81	=81	=81
0C	0c	1e	1g
.	.	1e	1g
=82	=82	=82.	=82.
0r	0r	1f	1a
.	.	2e\	2g/
.	.	[2f\	[2a/
=83	=83	=83	=83
1D	0r	4f\]	4a/]
.	.	4e\	4g/
.	.	4d\	4f/
.	.	4c\	4e/
1D	.	1d	1f
=84	=84	=84.	=84.
1AA	1c	1.e	0e
1AA	1c	.	.
.	.	4d\	.
.	.	4c\	.
=85	=85	=85	=85
0E	1G	2B\	1r
.	.	2.c\	.
.	1G	.	1e
.	.	4B\	.
.	.	4B\	.
.	.	4A/	.
=86	=86	=86.	=86.
1r	0B	0G	1g
1E	.	.	1g
=87	=87	=87	=87
1F	1r	1r	1a
1E	1B	1e	1b
=88	=88	=88.	=88.
1r	1c	1e	1.g
[1E	[1B	[1e	.
.	.	.	4f/
.	.	.	4e/
=89	=89	=89	=89
1E]	1B]	2e\]	2g/
.	.	4d\	2a/
.	.	4c\	.
[1E	1B	2B\	1b
.	.	[2e\	.
=90	=90	=90.	=90.
1E]	1c	4e\]	1e
.	.	4d\	.
.	.	4c\	.
.	.	4B\	.
1F	1d	1A	1a
=91	=91	=91	=91
1E	0e	1B	1g
1A	.	2r	1cc
.	.	2A/	.
=92	=92	=92.	=92.
2G\	1e	2B\	2b\
2E\	.	2c\	2g/
1F	2d\	1d	[1a
.	2B\	.	.
=93	=93	=93	=93
0E	1c	0e	2a/]
.	.	.	4g#i/
.	.	.	4f#i/
.	1B	.	1g#i
=94	=94	=94.	=94.
1r	[0A	1r	0a
[1F	.	1c	.
=95	=95	=95	=95
2F\]	0A]	1d	1r
4E\	.	.	.
4D\	.	.	.
2F\	.	1f	[1cc
4E\	.	.	.
4D\	.	.	.
=96	=96	=96.	=96.
1C	1r	1e	2cc\]
.	.	.	4b\
.	.	.	4a/
1C	1c	1e	2cc\
.	.	.	4b\
.	.	.	4a/
=97	=97	=97	=97
0C	2c\	0e	1g
.	1c	.	.
.	.	.	1cc
.	4B\	.	.
.	4A/	.	.
=98	=98	=98.	=98.
1r	1G	1r	1b
1C	1G	1e	[1g
=99	=99	=99	=99
2C/	0G	2e\	2g/]
2D\	.	1e	4f/
.	.	.	4e/
2E\	.	.	2g/
2F\	.	4d\	4f/
.	.	4c\	4e/
=100	=100	=100.	=100.
0G	1r	2.B\	1d
.	.	4c\	.
.	1G	4d\	2r
.	.	4c\	.
.	.	4B\	[2g/
.	.	4A/	.
=101	=101	=101	=101
0E	2G/	1G	2g/]
.	2A/	.	4f/
.	.	.	4e/
.	2B\	1G	1g
.	2c\	.	.
=102	=102	=102.	=102.
0D	0d	0A	0f
=103	=103	=103	=103
1r	0B	1r	1d
1E	.	1G	1e
=104	=104	=104.	=104.
1.F	0A	1.c	2r
.	.	.	1a
2E\	.	4B\	2g/
.	.	4A/	.
=105	=105	=105	=105
2D\	1r	2B\	2f/
2C/	.	1A	2e/
1BB	1B	.	1d
.	.	2G#i/	.
=106	=106	=106.	=106.
0AA	1.c	0A	1c
.	.	.	[1e
.	2B\	.	.
=107	=107	=107	=107
1r	2A/	2r	1e]
.	2G/	1e	.
1D	1F	.	1f
.	.	2d\	.
=108	=108	=108.	=108.
1.C	0E	2.e\	1g
.	.	4d\	.
.	.	2c\	2e/
2D\	.	4B\	2f/
.	.	4A/	.
=109	=109	=109	=109
1E	1r	2G/	1g
.	.	1c	.
1F	1A	.	1a
.	.	2d\	.
=110	=110	=110.	=110.
[0E	1.G	2B\	1b
.	.	2E/	.
.	.	2.c\	1cc
.	2A/	.	.
.	.	4d\	.
=111	=111	=111	=111
0E_	1B	[0el	2b\
.	.	.	2.g/
.	1c	.	.
.	.	.	4f/
.	.	.	4g/
.	.	.	4a/
=112	=112	=112.	=112.
0E]	0B	0e_	2b\
.	.	.	1a
.	.	.	2g#i/
=113	=113	=113	=113
0AAl	0Al	0e]	0al
!!LO:LB:i:g=z
=114||	=114||	=114||	=114||
*>B	*>B	*>B	*>B
*clefF4	*clefGv2	*clefGv2	*clefG2
*k[]	*k[]	*k[]	*k[]
*M2/1	*M2/1	*M2/1	*M2/1
*met(C2)	*met(C2)	*met(C2)	*met(C2)
!!section: Suscipiat eum
!!!OMD: Suscipiat eum
1r	1G	0r	0r
[1C	2G/	.	.
.	[2A/	.	.
=115.	=115.	=115.	=115.
1C]	4A/]	0r	0r
.	4G/	.	.
.	4G/	.	.
.	4F/	.	.
1C	1E	.	.
=116	=116	=116	=116
2C/	2E/	0r	0r
2.D\	1F	.	.
4C/	.	.	.
4C/	[2E/	.	.
4BB/	.	.	.
=117.	=117.	=117.	=117.
2AA/	2E/]	0r	0r
2C/	1A	.	.
1BB	.	.	.
.	2G/	.	.
=118	=118	=118	=118
2AA/	0c	0r	0r
2.F\	.	.	.
4E\	.	.	.
4E\	.	.	.
4D\	.	.	.
=119.	=119.	=119.	=119.
1C	1c	0r	0r
1F	1c	.	.
=120	=120	=120	=120
0E	2.c\	0r	0r
.	4B\	.	.
.	4B\	.	.
.	4A/	.	.
.	[2G/	.	.
=121.	=121.	=121.	=121.
2r	2G/]	0r	0r
2A\	2c\	.	.
2G\	2B\	.	.
[2A\	[2c\	.	.
=122	=122	=122	=122
4A\]	4c\]	0r	1cc
4G\	4B\	.	.
4F\	4A/	.	.
4E\	4G/	.	.
1F	1A	.	1cc
=123.	=123.	=123.	=123.
1G	0G	0r	1.b
1GG	.	.	.
.	.	.	4a/
.	.	.	4g/
=124	=124	=124	=124
0r	0r	1c	2a/
.	.	.	1g
.	.	1c	.
.	.	.	4f/
.	.	.	4e/
=125.	=125.	=125.	=125.
0r	0r	1.B	0d
.	.	4A/	.
.	.	4G/	.
=126	=126	=126	=126
0r	0r	2A/	1r
.	.	1G	.
.	.	.	1g
.	.	[2c\	.
=127.	=127.	=127.	=127.
0r	0r	4c\]	1g
.	.	4B\	.
.	.	2B\	.
.	.	2c\	2a/
.	.	[2e\	[2cc\
=128	=128	=128	=128
0r	0r	4e\]	4cc\]
.	.	4d\	4b\
.	.	2d\	2b\
.	.	[1e	2cc\
.	.	.	4b\
.	.	.	4a/
=129.	=129.	=129.	=129.
0r	0r	2e\]	1g
.	.	4d\	.
.	.	4c\	.
.	.	2B\	2r
.	.	2E/	[2g/
=130	=130	=130	=130
0r	0r	1e	2g/]
.	.	.	4f/
.	.	.	4e/
.	.	2r	2f/
.	.	[2e\	2e/
=131.	=131.	=131.	=131.
0r	0r	2e\]	2c/
.	.	4d\	2g/
.	.	4c\	.
.	.	2d\	2f/
.	.	[2e\	[2g/
=132	=132	=132	=132
0r	0r	2e\]	2g/]
.	.	2c\	4f/
.	.	.	4e/
.	.	2d\	2f/
.	.	2e\	2g/
=133.	=133.	=133.	=133.
1D	0r	2f\	1a
.	.	2d\	.
1D	.	1f	1a
=134	=134	=134	=134
1E	1G	0e	0g
1E	1G	.	.
=135.	=135.	=135.	=135.
1F	1A	0r	0r
1F	1A	.	.
=136	=136	=136	=136
2G\	1B	0r	0r
4F\	.	.	.
4E\	.	.	.
1D	1B	.	.
=137.	=137.	=137.	=137.
1C	2c\	0r	0r
.	4B\	.	.
.	4A/	.	.
2r	1G	.	.
2C/	.	.	.
=138	=138	=138	=138
2D\	2r	0r	0r
1F	2.A/	.	.
.	4G/	.	.
2E\	2G/	.	.
=139.	=139.	=139.	=139.
2F\	2A/	0r	0r
2.A\	2c\	.	.
.	2B\	.	.
4G\	.	.	.
[2G\	[2d\	.	.
=140	=140	=140	=140
4G\]	2d\]	0r	0r
4F\	.	.	.
2E\	2.c\	.	.
1D	.	.	.
.	4B\	.	.
.	2B\	.	.
=141.	=141.	=141.	=141.
0C	0c	1.e	1.g
.	.	4d\	4f/
.	.	4c\	4e/
=142	=142	=142	=142
0r	0r	1c	1e
.	.	2c\	2e/
.	.	[2d\	[2f/
=143.	=143.	=143.	=143.
0r	0r	4d\]	4f/]
.	.	4c\	4e/
.	.	4B\	4d/
.	.	4A/	4c/
.	.	1B	1d
=144	=144	=144	=144
0r	0r	1c	1c
.	.	2r	2r
.	.	2e\	2cc\
=145.	=145.	=145.	=145.
0r	0r	1e	1.cc
.	.	2e\	.
.	.	[2f\	[2dd\
=146	=146	=146	=146
0r	0r	4f\]	4dd\]
.	.	4e\	4cc\
.	.	4d\	4b\
.	.	4c\	4a/
.	.	1d	1b
=147.	=147.	=147.	=147.
0r	1c	1e	2.e/
.	.	.	4f/
.	2c\	1r	4g/
.	.	.	4a/
.	[2d\	.	[2b\
=148	=148	=148	=148
0r	4d\]	0r	2b\]
.	4c\	.	.
.	4B\	.	2.a/
.	4A/	.	.
.	1B	.	.
.	.	.	4f/
.	.	.	2g/
=149.	=149.	=149.	=149.
1C	2.E/	0r	1c
.	4F/	.	.
2C/	4G/	.	1r
.	4A/	.	.
[2D\	[2B\	.	.
=150	=150	=150	=150
4D\]	2B\]	0r	0r
4C/	.	.	.
4BB/	2.A/	.	.
4AA/	.	.	.
1BB	.	.	.
.	4G#i/	.	.
.	2G#i/	.	.
=151.	=151.	=151.	=151.
0AA	0A	0r	0r
=152	=152	=152	=152
1C	1G	1c	1e
1C	1G	1c	1e
=153.	=153.	=153.	=153.
1F	1A	1d	1f
1C	1G	1c	1e
=154	=154	=154	=154
1D	1F	1B	1d
1D	1F	2.A/	1d
.	.	4G/	.
=155.	=155.	=155.	=155.
0AA	0E	0A	1c
.	.	.	2r
.	.	.	2e/
=156	=156	=156	=156
0r	0r	2r	1g
.	.	2e\	.
.	.	1e	1g
=157.	=157.	=157.	=157.
0r	0r	1f	1a
.	.	2e\	[1cc
.	.	[2c\	.
=158	=158	=158	=158
0r	0r	4c\]	1cc]
.	.	4d\	.
.	.	2e\	.
.	.	2A/	1cc
.	.	2e\	.
=159.	=159.	=159.	=159.
0r	0r	2d\	2b\
.	.	2.e\	2.g/
.	.	4f\	4a/
.	.	[2g\	2b\
=160	=160	=160	=160
1r	0r	4g\]	2e/
.	.	4f\	.
.	.	1e	2g/
1D	.	.	1f
.	.	2d\	.
=161.	=161.	=161.	=161.
2C/	1A	1e	1e
2AA/	.	.	.
1BB	2G/	1r	1r
.	2E/	.	.
=162	=162	=162	=162
[0AA	1F	1c	1r
.	[1E	[1c	[1e
=163.	=163.	=163.	=163.
0AA]	1E]	2c\]	2e/]
.	.	4B\	4d/
.	.	4A/	4c/
.	1r	2c\	2e/
.	.	2d\	2f/
=164	=164	=164	=164
0r	0r	1e	1.g
.	.	[1e	.
.	.	.	4f/
.	.	.	4e/
=165.	=165.	=165.	=165.
1r	0r	2e\]	2g/
.	.	4d\	2a/
.	.	4c\	.
2r	.	2d\	2b\
2E\	.	2c\	[2cc\
=166	=166	=166	=166
1F	1r	2A/	4cc\]
.	.	.	4b\
.	.	1c	4a/
.	.	.	4g/
1F	2r	.	1a
.	2A/	2d\	.
=167.	=167.	=167.	=167.
1E	1B	1e	0g
1G	1B	1E	.
=168	=168	=168	=168
1F	1A	0r	0r
2E\	1c	.	.
[2A\	.	.	.
=169.	=169.	=169.	=169.
2A\]	1B	0r	0r
2G\	.	.	.
2F\	2c\	.	.
2D\	2d\	.	.
=170	=170	=170	=170
1F	4d\	0r	0r
.	4c\	.	.
.	4B\	.	.
.	4A/	.	.
1E	1G	.	.
=171.	=171.	=171.	=171.
2r	0A	0e	0cc
2AA/	.	.	.
1AA	.	.	.
=172	=172	=172	=172
1C	0r	1e	1cc
1AA	.	1c	1cc
=173.	=173.	=173.	=173.
1GG	1.d	2d\	1b
.	.	1g	.
2r	.	.	1g
2G\	4c\	4f\	.
.	4B\	4e\	.
=174	=174	=174	=174
2F\	2A/	2d\	2r
2.G\	1B	2d\	1g
.	.	2d\	.
4F\	.	.	.
4E\	[2c\	[2e\	2g/
4D\	.	.	.
=175.	=175.	=175.	=175.
1C	4c\]	4e\]	2a/
.	4B\	4d\	.
.	4A/	4c\	1cc
.	4G/	4B\	.
1AA	2.F#i/	1c	.
.	.	.	4b\
.	4E/	.	4a/
=176	=176	=176	=176
2GG/	0G	2r	1b
2GG/	.	2d\	.
2GG/	.	2d\	2b\
2GG/	.	2d\	2b\
=177.	=177.	=177.	=177.
0D	2r	1.f	4a/
.	.	.	4g/
.	2F/	.	4f/
.	.	.	4e/
.	2F/	.	1d
.	2F/	4e\	.
.	.	4d\	.
=178	=178	=178	=178
2r	1D	2f\	2r
1F	.	4e\	1a
.	.	4d\	.
.	2r	2c\	.
[2D\	[2d\	2d\	[2a/
=179.	=179.	=179.	=179.
2D\]	2d\]	1A	2a/]
2F\	1d	.	2a/
2G\	.	2r	2b\
2G\	2d\	2G/	2b\
=180	=180	=180	=180
1C	2e\	2c\	1g
.	2e\	2c\	.
2r	1c	1A	2r
[2F\	.	.	[2a/
=181.	=181.	=181.	=181.
2F\]	2r	2r	2a/]
1D	1d	1A	1a
[2G\	[2d\	2G/	[2b\
=182	=182	=182	=182
2G\]	2d\]	2B\	2b\]
2C/	1e	2.c\	2.g/
1E	.	.	.
.	.	4B\	4a/
.	2c\	2G/	4b\
.	.	.	4cc\
=183.	=183.	=183.	=183.
2D\	2f\	2A/	2dd\
2E\	2e\	2G/	1cc
2F\	1d	2A/	.
2G\	.	2B\	2b\
=184	=184	=184	=184
1C	1c	0G	1cc
2r	1r	.	1b
2G\	.	.	.
=185.	=185.	=185.	=185.
1A	2r	1r	1cc
.	2c\	.	.
1G	[1d	2r	1b
.	.	2G/	.
=186	=186	=186	=186
2r	2d\]	2F/	1r
2GG/	2B\	2.G/	.
1AA	1c	.	2r
.	.	4F#i/	.
.	.	2F#i/	2a/
=187.	=187.	=187.	=187.
1GG	1B	1G	2b\
.	.	.	1dd
1r	2r	2B\	.
.	2A/	2c\	2cc\
=188	=188	=188	=188
2r	2B\	2.d\	2b\
2G\	1d	.	2g/
.	.	4e\	.
2F\	.	2f\	2a/
2G\	2B\	2d\	2b\
=189.	=189.	=189.	=189.
2C/	2c\	2e\	1g
2.G\	2B\	2d\	.
.	1A	2e\	1cc
4F\	.	.	.
2F\	.	2f\	.
=190	=190	=190	=190
2G\	2G/	0d	2b\
2GG/	1G	.	2.b\
1D	.	.	.
.	.	.	4a/
.	2F#i/	.	2a/
=191.	=191.	=191.	=191.
0GG	0G	2r	0b
.	.	2d\	.
.	.	2d\	.
.	.	2d\	.
=192	=192	=192	=192
0r	0r	1e	2r
.	.	.	2g/
.	.	1e	2g/
.	.	.	2g/
=193.	=193.	=193.	=193.
0r	0r	1c	1a
.	.	1A	1a
=194	=194	=194	=194
0r	0r	2r	1f
.	.	2.d\	.
.	.	.	1d
.	.	4e\	.
.	.	2f\	.
=195.	=195.	=195.	=195.
0r	0r	1e	2r
.	.	.	2.g/
.	.	1g	.
.	.	.	4a/
.	.	.	2b\
=196	=196	=196	=196
0r	0r	2f\	1a
.	.	4e\	.
.	.	4d\	.
.	.	2e\	1cc
.	.	2c\	.
=197.	=197.	=197.	=197.
0r	0r	1.d	2b\
.	.	.	4a/
.	.	.	4g/
.	.	.	2a/
.	.	4c\	[2g/
.	.	4B\	.
=198	=198	=198	=198
1r	0r	1A	2g/]
.	.	.	2f#i/
1GG	.	1G	1g
=199.	=199.	=199.	=199.
1C	1C	0r	0r
1D	1F	.	.
=200	=200	=200	=200
1E	1G	0r	0r
2C/	1A	.	.
[2D\	.	.	.
=201.	=201.	=201.	=201.
4D\]	1A	0r	0r
4C/	.	.	.
4BB/	.	.	.
4AA/	.	.	.
1BB	1G#i	.	.
=202	=202	=202	=202
1AA	0A	0r	0r
2r	.	.	.
[2D\	.	.	.
=203.	=203.	=203.	=203.
4D\]	1A	0r	0r
4C/	.	.	.
2C/	.	.	.
2D\	[1B	.	.
[2GG/	.	.	.
=204	=204	=204	=204
2GG/]	2B\]	0r	0r
2.G\	4A/	.	.
.	4G/	.	.
.	1A	.	.
4F\	.	.	.
2F\	.	.	.
=205.	=205.	=205.	=205.
2G\	1G	0r	0r
2C/	.	.	.
2G\	2r	.	.
4F\	[2c\	.	.
4E\	.	.	.
=206	=206	=206	=206
1D	2c\]	0r	0r
.	2B\	.	.
[1C	2c\	.	.
.	4B\	.	.
.	4A/	.	.
=207.	=207.	=207.	=207.
1C]	2G/	0r	0r
.	2A/	.	.
2r	1E	.	.
2C/	.	.	.
=208	=208	=208	=208
2D\	2r	0r	0r
2E\	1c	.	.
2F\	.	.	.
2G\	2B\	.	.
=209.	=209.	=209.	=209.
2A\	2c\	0r	0r
4G\	4B\	.	.
4F\	4A/	.	.
2E\	2G/	.	.
[2F\	2A/	.	.
=210	=210	=210	=210
2F\]	2D/	0r	0r
1E	2G/	.	.
.	2F/	.	.
2D\	4E/	.	.
.	4D/	.	.
=211.	=211.	=211.	=211.
0E	0C	0e	0g
=212	=212	=212	=212
0r	0r	1c	1e
.	.	1d	1f
=213.	=213.	=213.	=213.
0E	0G	2e\	0e
.	.	4d\	.
.	.	4c\	.
.	.	1B	.
=214	=214	=214	=214
1C	1E	0A	1r
1D	1F	.	1a
=215.	=215.	=215.	=215.
1E	0E	1r	1g
1AA	.	1e	1cc
=216	=216	=216	=216
1r	1r	2d\	2b\
.	.	4c\	4a/
.	.	4B\	4g/
1A	1c	2A/	1a
.	.	2F/	.
=217.	=217.	=217.	=217.
2G\	2B\	1G	0d
1G	4A/	.	.
.	4G/	.	.
.	1A	1D	.
2F\	.	.	.
=218	=218	=218	=218
1.G	[0G	1r	1r
.	.	1d	1b
2GG/	.	.	.
=219.	=219.	=219.	=219.
0GG	0G]	1d	2b\
.	.	.	1dd
.	.	1d	.
.	.	.	2b\
=220	=220	=220	=220
0r	0r	1f	1a
.	.	1e	1cc
=221.	=221.	=221.	=221.
1r	1r	2.d\	2b\
.	.	.	1a
.	.	4c\	.
1D	1F	2A/	.
.	.	2B\	4g/
.	.	.	4f/
=222	=222	=222	=222
2C/	2G/	4c\	1e
.	.	4d\	.
2AA/	2A/	4e\	.
.	.	4f\	.
1E	1B	[1e	2r
.	.	.	2g/
=223.	=223.	=223.	=223.
1.AA	2.c\	1e]	1a
.	4B\	.	.
.	2A/	1e	[1cc
2AA/	4G/	.	.
.	4F/	.	.
=224	=224	=224	=224
1AA	1E	1c	2cc\]
.	.	.	2b\
1D	1F	1d	2a/
.	.	.	4g/
.	.	.	4f/
=225.	=225.	=225.	=225.
2C/	0A	2e\	2e/
2.D\	.	2f\	2d/
.	.	1d	1f
4E\	.	.	.
2F\	.	.	.
=226	=226	=226	=226
1C	1G	2r	1e
.	.	1c	.
1D	1F	.	1d
.	.	2B\	.
=227.	=227.	=227.	=227.
1AA	1E	1c	1a
1BB	1D	1d	2f/
.	.	.	[2g/
=228	=228	=228	=228
1C	1G	1e	2g/]
.	.	.	2e/
1C	1A	2.c\	[1e
.	.	4B\	.
=229.	=229.	=229.	=229.
0D	0F	0A	2e/]
.	.	.	2d/
.	.	.	1d
=230	=230	=230	=230
1r	[0El	1r	[0el
[1G	.	[1B	.
=231.	=231.	=231.	=231.
1G]	0E_	0B]	0e_
1GG	.	.	.
=232	=232	=232	=232
0AA	0E_	0c	0e_
=233.	=233.	=233.	=233.
0El	0E]	0Bl	0e]
==	==	==	==
*-	*-	*-	*-
!!!RDF**kern: l=long note in original notation
!!!RDF**kern: i=editorial accidental
!!!ENC:	Chris Gage 01-02-2013
!!!END:	2013/07/18/
!!!EED:	Jesse Rodin
!!!EEV:	2013/07/20/
!!!ONB:	Translated from MusicXML and edited on 2013/07/20/ by Craig Sapp
!!muse2ps: C^@{COM}^i2I150v85,85,85,150Q16
